X:58
T:Maids of Mount Kisco, The
I:speed 350
Z:Mount Kisco is in New York state.
R:reel
E:8
M:C|
K:ADor
G|EA~A2 BGAG|EA~A2 BGAG|EG~G2 BG~G2|EG~G2 EGDG|\
EA~A2 BGAG|EA~A2 BABd|efg2 af(3.g.f.e |dBGB A3:|*
G|~A3B dBAB|G2BG DGBG|~A3B dBAB|efge dBGB|\
~A3B dBAB|G2BG DGBG|~A3B dBAB|efge d2(3Bcd||*
ea~a2 bgag|e2 dB GABd|eaab ~a3g|edef g3b|\
~a3f ~g3e|dedB GBd2|eA~A2 efge|dBGB A3:|**
<end>
<start>
